src/assets/icons/file-pdf.svg

<svg width="14" height="14" viewBox="0 0 14 14" fill="none" xmlns="http://www.w3.org/2000/svg">
<g id="file-pdf">
<g id="Vector">
<path fill-rule="evenodd" clip-rule="evenodd" d="M7.14083 7.95517C7.37203 8.56318 7.70084 8.97758 8.19284 9.27758C8.68964 9.21517 9.68483 9.12078 10.0336 9.46318C10.3344 9.76318 10.2624 10.5688 9.53364 10.5688C9.11044 10.5688 8.47844 10.3744 7.93844 10.0832C7.43465 10.1674 6.87763 10.3559 6.34207 10.5371C6.22107 10.5781 6.10118 10.6187 5.98324 10.6576C4.55123 13.1256 3.71363 12 3.80803 11.5488C3.92163 10.9776 4.69364 10.5232 5.26564 10.2288C5.56564 9.70318 5.99203 8.78559 6.27764 8.10319C6.06644 7.28639 5.95203 6.64638 6.07764 6.18638C6.21444 5.68078 7.17523 5.60638 7.29523 6.35518C7.42533 6.78107 7.2631 7.45057 7.15172 7.91022C7.14803 7.92544 7.1444 7.94043 7.14083 7.95517ZM5.14364 10.7728C4.91818 10.9742 4.49483 11.3522 4.37044 11.6864C4.37044 11.7064 4.69603 11.552 5.23923 10.6864C5.21476 10.7093 5.18208 10.7385 5.14364 10.7728ZM6.70324 6.24078C6.91444 6.24078 6.89444 7.15758 6.75444 7.40638C6.62884 7.00958 6.63124 6.24078 6.70324 6.24078ZM6.71203 8.58079C6.52003 9.08639 6.28324 9.65998 6.00564 10.1432C6.11486 10.1013 6.22774 10.0549 6.34447 10.007C6.71336 9.85545 7.12071 9.68816 7.57283 9.59518C7.25203 9.35758 6.94963 9.01199 6.71203 8.58079ZM9.76803 10.0008C9.76803 10.0008 9.62483 10.172 8.70163 9.77758C9.70483 9.70318 9.87043 9.93198 9.76803 10.0008Z" fill="black"/>
<path fill-rule="evenodd" clip-rule="evenodd" d="M7.82404 0.176001L12.224 4.576C12.3368 4.688 12.4 4.8408 12.4 5V11.8C12.4 13.0136 11.4136 14 10.2 14H3.80004C2.58644 14 1.60004 13.0136 1.60004 11.8V2.2C1.60004 0.9864 2.58644 0 3.80004 0H7.40004C7.55844 0 7.71124 0.063201 7.82404 0.176001ZM10.3512 4.39921L8.00004 2.04801V4.39921H10.3512ZM3.80004 12.8H10.2C10.7512 12.8 11.2 12.3512 11.2 11.8V5.6H7.40004C7.06884 5.6 6.80004 5.3312 6.80004 5V1.2H3.80004C3.24884 1.2 2.80004 1.6488 2.80004 2.2V11.8C2.80004 12.3512 3.24884 12.8 3.80004 12.8Z" fill="black"/>
</g>
</g>
</svg>

<svg xmlns="http://www.w3.org/2000/svg" fill="none" viewBox="0 0 14 14"><g fill="#000" fill-rule="evenodd" clip-rule="evenodd"><path d="M7.14 7.955c.232.608.56 1.023 1.053 1.323.497-.063 1.492-.157 1.84.185.301.3.23 1.106-.5 1.106-.423 0-1.055-.195-1.595-.486-.503.084-1.06.273-1.596.454q-.18.062-.359.12c-1.432 2.469-2.27 1.343-2.175.892.114-.571.886-1.026 1.458-1.32.3-.526.726-1.443 1.012-2.126-.212-.817-.326-1.457-.2-1.917.136-.505 1.097-.58 1.217.17.13.425-.032 1.095-.143 1.554zm-1.996 2.818c-.226.201-.65.58-.774.913 0 .02.326-.134.87-1zm1.56-4.532c.21 0 .19.917.05 1.165-.125-.396-.123-1.165-.05-1.165m.008 2.34c-.192.505-.429 1.079-.706 1.562q.164-.063.338-.136c.37-.152.777-.319 1.229-.412a3.15 3.15 0 0 1-.861-1.014M9.768 10s-.143.171-1.066-.223c1.003-.075 1.168.154 1.066.223"/><path d="m7.824.176 4.4 4.4A.6.6 0 0 1 12.4 5v6.8c0 1.214-.986 2.2-2.2 2.2H3.8c-1.214 0-2.2-.986-2.2-2.2V2.2C1.6.986 2.586 0 3.8 0h3.6a.6.6 0 0 1 .424.176m2.527 4.223L8 2.048v2.351zM3.8 12.8h6.4c.551 0 1-.449 1-1V5.6H7.4a.6.6 0 0 1-.6-.6V1.2h-3c-.551 0-1 .449-1 1v9.6c0 .551.449 1 1 1"/></g></svg>
